X: 2702
T: Banks Of Lough Gowna, The
R: jig
M: 6/8
K: Aminor
|:~A3 AGE|EDE ~G3|~A3 AGE|c2d edc|
~A3 AGE|EDE GAB|cde ged|cAA A3:|
|:cde ~g3|gea ged|cde ~g3|geg ~a3|
cde ~g3|gea ged|cde ged|cAA A3:|

